X:2162
T:Garrett Barry's Reel
O:england
M:C|
L:1/8
R:reel
N:A version of "Mrs McLeod's"
D:Music at Matt Molloy's
K:G
~G3e dGBd|edBe dBA2|~G3B dG (3Bcd|AEE2 GED2|
~G3B d2Bd|edcB cdeg|edcB cde2|1 gedB AGEF:|2 gedB agef||
|:~g3b agf2|edBe dG (3Bcd|g2gb agf2|eaag agef|
~g2bg agf2|edBe dG (3Bcd|edcB c2ef|1 gedB age2:|2 gedB AGEF||


